X:1
T:Mountain Dew
M:4/4
L:1/4
K:G
 B, C| D D2 E| G2- G3/2 G/2| A G2 A| B2 B A| G G2 G| A G2 E| D4-| D2 B,- C|\
 D D2 E| G2 A B| d B2 A| G2 A B| d B2 A| G2 A A| G4-| G2 B, B,| D D2 E|\
 G2 A G| B4-| B3 A| G G2 G| A G2 E| D4-| D2 B, C| D D2 E| G2 A B| d B2 A|\
 G2 A B| d B3| G2 A2| G4-| G2||
